build/img/icons/gift.svg

<svg width="139" height="140" viewBox="0 0 139 140" fill="none" xmlns="http://www.w3.org/2000/svg">
<path fill-rule="evenodd" clip-rule="evenodd" d="M28.9583 52.625C25.7597 52.625 23.1666 55.218 23.1666 58.4167V116.333C23.1666 119.532 25.7597 122.125 28.9583 122.125H110.042C113.24 122.125 115.833 119.532 115.833 116.333V58.4167C115.833 55.218 113.24 52.625 110.042 52.625H28.9583ZM11.5833 58.4167C11.5833 48.8207 19.3624 41.0417 28.9583 41.0417H110.042C119.638 41.0417 127.417 48.8207 127.417 58.4167V116.333C127.417 125.929 119.638 133.708 110.042 133.708H28.9583C19.3624 133.708 11.5833 125.929 11.5833 116.333V58.4167Z" fill="#F3F3F3"/>
<path fill-rule="evenodd" clip-rule="evenodd" d="M47.6054 6.73684C52.0993 5.84295 56.7573 6.30172 60.9905 8.05515C65.2237 9.80859 68.8418 12.7779 71.3874 16.5877C73.933 20.3974 75.2917 24.8764 75.2917 29.4584C75.2917 32.657 72.6986 35.25 69.5 35.25C66.3013 35.25 63.7083 32.657 63.7083 29.4584C63.7083 27.1674 63.029 24.9279 61.7562 23.023C60.4834 21.1181 58.6743 19.6335 56.5577 18.7568C54.4412 17.88 52.1121 17.6507 49.8652 18.0976C47.6182 18.5445 45.5543 19.6478 43.9343 21.2677C42.3144 22.8877 41.2112 24.9516 40.7642 27.1986C40.3173 29.4455 40.5467 31.7745 41.4234 33.8911C42.3001 36.0077 43.7848 37.8168 45.6896 39.0896C47.5945 40.3623 49.834 41.0417 52.125 41.0417C55.3236 41.0417 57.9167 43.6347 57.9167 46.8334C57.9167 50.032 55.3236 52.625 52.125 52.625C47.5431 52.625 43.064 51.2663 39.2543 48.7207C35.4445 46.1752 32.4752 42.557 30.7218 38.3239C28.9684 34.0907 28.5096 29.4327 29.4035 24.9388C30.2974 20.4449 32.5038 16.317 35.7437 13.0771C38.9836 9.83714 43.1115 7.63073 47.6054 6.73684Z" fill="#F3F3F3"/>
<path fill-rule="evenodd" clip-rule="evenodd" d="M78.0095 8.05515C82.2426 6.30172 86.9007 5.84295 91.3946 6.73684C95.8885 7.63073 100.016 9.83714 103.256 13.0771C106.496 16.317 108.703 20.4449 109.597 24.9388C110.49 29.4327 110.032 34.0907 108.278 38.3239C106.525 42.557 103.555 46.1752 99.7457 48.7207C95.9359 51.2663 91.4569 52.625 86.875 52.625C83.6763 52.625 81.0833 50.032 81.0833 46.8334C81.0833 43.6347 83.6763 41.0417 86.875 41.0417C89.1659 41.0417 91.4055 40.3623 93.3103 39.0896C95.2152 37.8168 96.6999 36.0077 97.5766 33.8911C98.4533 31.7745 98.6827 29.4455 98.2357 27.1986C97.7888 24.9516 96.6856 22.8877 95.0656 21.2677C93.4457 19.6478 91.3817 18.5445 89.1348 18.0976C86.8878 17.6507 84.5588 17.88 82.4422 18.7568C80.3257 19.6335 78.5166 21.1181 77.2438 23.023C75.971 24.9279 75.2916 27.1674 75.2916 29.4584C75.2916 32.657 72.6986 35.25 69.5 35.25C66.3013 35.25 63.7083 32.657 63.7083 29.4584C63.7083 24.8764 65.067 20.3974 67.6126 16.5877C70.1582 12.7779 73.7763 9.80859 78.0095 8.05515Z" fill="#F3F3F3"/>
<path fill-rule="evenodd" clip-rule="evenodd" d="M69.5 23.6667C72.6986 23.6667 75.2916 26.2597 75.2916 29.4584V127.917C75.2916 131.115 72.6986 133.708 69.5 133.708C66.3013 133.708 63.7083 131.115 63.7083 127.917V29.4584C63.7083 26.2597 66.3013 23.6667 69.5 23.6667Z" fill="#F3F3F3"/>
<path fill-rule="evenodd" clip-rule="evenodd" d="M11.5833 87.375C11.5833 84.1764 14.1763 81.5833 17.375 81.5833H121.625C124.824 81.5833 127.417 84.1764 127.417 87.375C127.417 90.5737 124.824 93.1667 121.625 93.1667H17.375C14.1763 93.1667 11.5833 90.5737 11.5833 87.375Z" fill="#F3F3F3"/>
</svg>

<svg width="139" height="140" fill="none" xmlns="http://www.w3.org/2000/svg">
    <path fill-rule="evenodd" clip-rule="evenodd" d="M28.958 52.625a5.792 5.792 0 0 0-5.791 5.792v57.916a5.792 5.792 0 0 0 5.791 5.792h81.084a5.792 5.792 0 0 0 5.791-5.792V58.417a5.792 5.792 0 0 0-5.791-5.792H28.958zm-17.375 5.792c0-9.596 7.78-17.375 17.375-17.375h81.084c9.596 0 17.375 7.779 17.375 17.375v57.916c0 9.596-7.779 17.375-17.375 17.375H28.958c-9.596 0-17.375-7.779-17.375-17.375V58.417z" fill="#F3F3F3"/>
    <path fill-rule="evenodd" clip-rule="evenodd" d="M47.605 6.737a23.167 23.167 0 0 1 27.687 22.721 5.792 5.792 0 0 1-11.584 0 11.583 11.583 0 1 0-11.583 11.584 5.792 5.792 0 0 1 0 11.583 23.167 23.167 0 0 1-4.52-45.888z" fill="#F3F3F3"/>
    <path fill-rule="evenodd" clip-rule="evenodd" d="M78.01 8.055a23.167 23.167 0 1 1 8.865 44.57 5.792 5.792 0 1 1 0-11.583 11.584 11.584 0 1 0-11.583-11.584 5.792 5.792 0 0 1-11.584 0A23.166 23.166 0 0 1 78.01 8.055z" fill="#F3F3F3"/>
    <path fill-rule="evenodd" clip-rule="evenodd" d="M69.5 23.667a5.792 5.792 0 0 1 5.792 5.791v98.459a5.791 5.791 0 0 1-11.584 0V29.458a5.792 5.792 0 0 1 5.792-5.791z" fill="#F3F3F3"/>
    <path fill-rule="evenodd" clip-rule="evenodd" d="M11.583 87.375a5.792 5.792 0 0 1 5.792-5.792h104.25a5.792 5.792 0 1 1 0 11.584H17.375a5.792 5.792 0 0 1-5.792-5.792z" fill="#F3F3F3"/>
</svg>
